src/images/bifi-logos/header-logo-notext.svg

<svg xmlns="http://www.w3.org/2000/svg" viewBox="0 0 394 395" fill="#fff"><path d="M196.643 21.0197c23.725 0 46.727 4.6503 68.368 13.8271 10.397 4.4023 20.444 9.8588 29.83 16.2246 9.304 6.3038 18.051 13.5377 26.014 21.495 7.963 7.978 15.184 16.7414 21.455 26.0628 6.334 9.4038 11.801 19.4698 16.195 29.8868 9.159 21.681 13.801 44.726 13.801 68.494 0 23.769-4.642 46.814-13.801 68.495-4.394 10.417-9.841 20.482-16.195 29.886-6.292 9.322-13.512 18.085-21.455 26.063-7.963 7.978-16.71 15.212-26.014 21.495-9.386 6.366-19.433 11.823-29.83 16.225-21.641 9.177-44.643 13.827-68.368 13.827-23.724 0-46.726-4.65-68.367-13.827-10.397-4.402-20.444-9.859-29.8306-16.225-9.304-6.304-18.051-13.537-26.0141-21.495-7.9632-7.978-15.1836-16.741-21.455-26.063-6.3334-9.404-11.8003-19.469-16.1944-29.886-9.1597-21.681-13.8014-44.726-13.8014-68.495 0-23.768 4.6417-46.813 13.8014-68.494 4.3941-10.417 9.8404-20.483 16.1944-29.8868 6.292-9.3214 13.5125-18.0848 21.455-26.0628 7.9631-7.9779 16.7101-15.2118 26.0141-21.495 9.3866-6.3658 19.4336-11.8223 29.8306-16.2246 21.641-9.1768 44.643-13.8271 68.367-13.8271Zm0-21.0197C88.0274 0 0 88.1917 0 197.01c0 108.819 88.0274 197.011 196.643 197.011 108.616 0 196.644-88.192 196.644-197.011C393.287 88.1917 305.239 0 196.643 0Z"/><path d="M136.96 121.509v-14.53c0-11.7394 7.674-21.3089 19.227-23.3344 8.726-1.5501 16.813.0827 23.229 6.7792 4.209 4.3817 6.395 9.6932 6.478 15.7702.082 5.043 0 10.107 0 15.232h26.53c0-.31.041-.64.041-.992v-13.786c.041-13.0412 10.336-23.3547 23.353-23.4787 4.497-.0414 8.85.3927 12.852 2.5628 8.211 4.4644 12.502 11.4089 12.729 20.7509.124 4.94.021 9.88.021 14.985h34.472c6.437 0 10.707 4.299 11.285 10.726.495 5.498-.908 10.521-2.724 15.543-1.877 5.208-4.559 10.086-7.983 14.427-2.703 3.43-5.735 6.634-8.851 9.714-4.043 3.968-8.293 7.73-12.522 11.533-2.31 2.066-4.373 4.319-5.694 7.151-.371.806-.701 1.757-.701 2.625-.041 21.164.041 42.328-.062 63.493-.124 25.442-18.897 48.116-43.818 52.952-3.857.723-7.756 1.116-11.676 1.137-10.955.144-21.909.062-32.863.041-26.737 0-49.141-18.271-54.381-44.499-.68-3.637-1.031-7.316-1.01-11.016-.104-20.627-.042-41.254-.062-61.86 0-.641-.145-1.282-.413-1.86-1.671-3.886-4.621-6.738-7.695-9.529-4.146-3.761-8.252-7.564-12.316-11.408-4.7447-4.485-8.9738-9.405-12.0683-15.192-3.4658-6.49-6.4158-13.227-6.4158-20.813 0-1.715.1856-3.41.557-5.084 1.1552-4.816 5.4256-8.061 10.3974-8.081h40.0427l.041.041Zm38.103 23.355h-42.167c-2.703 0-5.034 1.819-5.384 4.485-.227 1.53-.207 3.1.061 4.63.929 4.733 2.992 9.011 6.272 12.525 3.28 3.513 6.87 6.634 10.191 10.045 2.517 2.563 4.126 5.621 4.126 9.404-.021 23.107-.021 46.214 0 69.321 0 1.633.083 3.266.309 4.878 2.332 15.873 15.617 27.323 31.626 27.323h32.987c1.63 0 3.26-.082 4.889-.289 15.7-2.17 27.397-15.584 27.417-31.457 0-3.844-.041-7.709.021-11.554 0-.888-.248-1.26-1.114-1.529-8.108-2.48-15.864-6.015-23.064-10.5-16.545-10.292-29.233-24.099-37.443-41.894-3.941-8.536-6.643-17.444-7.592-26.807-.619-6.139-.743-12.318-1.114-18.622l-.021.041Zm68.698 61.964c.061-5.787-4.56-10.52-10.315-10.603-5.777-.062-10.501 4.568-10.583 10.355-.062 5.787 4.559 10.52 10.314 10.603h.021c5.756.082 10.48-4.527 10.542-10.293v-.062h.021Z"/><path d="M179.187 206.724c-.021 5.788-4.724 10.459-10.48 10.438-5.776-.021-10.438-4.733-10.418-10.52.021-5.787 4.724-10.458 10.501-10.438h.041c5.756 0 10.397 4.713 10.377 10.458v.042l-.021.02Z"/></svg>

<svg width="394" height="395" viewBox="0 0 394 395" fill="none" xmlns="http://www.w3.org/2000/svg">
<path d="M196.643 21.0197C220.368 21.0197 243.37 25.67 265.011 34.8468C275.408 39.2491 285.455 44.7056 294.841 51.0714C304.145 57.3752 312.892 64.6091 320.855 72.5664C328.818 80.5444 336.039 89.3078 342.31 98.6292C348.644 108.033 354.111 118.099 358.505 128.516C367.664 150.197 372.306 173.242 372.306 197.01C372.306 220.779 367.664 243.824 358.505 265.505C354.111 275.922 348.664 285.987 342.31 295.391C336.018 304.713 328.798 313.476 320.855 321.454C312.892 329.432 304.145 336.666 294.841 342.949C285.455 349.315 275.408 354.772 265.011 359.174C243.37 368.351 220.368 373.001 196.643 373.001C172.919 373.001 149.917 368.351 128.276 359.174C117.879 354.772 107.832 349.315 98.4454 342.949C89.1414 336.645 80.3944 329.412 72.4313 321.454C64.4681 313.476 57.2477 304.713 50.9763 295.391C44.6429 285.987 39.176 275.922 34.7819 265.505C25.6222 243.824 20.9805 220.779 20.9805 197.01C20.9805 173.242 25.6222 150.197 34.7819 128.516C39.176 118.099 44.6223 108.033 50.9763 98.6292C57.2683 89.3078 64.4888 80.5444 72.4313 72.5664C80.3944 64.5885 89.1414 57.3546 98.4454 51.0714C107.832 44.7056 117.879 39.2491 128.276 34.8468C149.917 25.67 172.919 21.0197 196.643 21.0197ZM196.643 0C88.0274 0 0 88.1917 0 197.01C0 305.829 88.0274 394.021 196.643 394.021C305.259 394.021 393.287 305.829 393.287 197.01C393.287 88.1917 305.239 0 196.643 0Z" fill="white"/>
<path d="M136.96 121.509V106.979C136.96 95.2396 144.634 85.6701 156.187 83.6446C164.913 82.0945 173 83.7273 179.416 90.4238C183.625 94.8055 185.811 100.117 185.894 106.194C185.976 111.237 185.894 116.301 185.894 121.426H212.424C212.424 121.116 212.465 120.786 212.465 120.434V106.648C212.506 93.6068 222.801 83.2933 235.818 83.1693C240.315 83.1279 244.668 83.562 248.67 85.7321C256.881 90.1965 261.172 97.141 261.399 106.483C261.523 111.423 261.42 116.363 261.42 121.468H295.892C302.329 121.468 306.599 125.767 307.177 132.194C307.672 137.692 306.269 142.715 304.453 147.737C302.576 152.945 299.894 157.823 296.47 162.164C293.767 165.594 290.735 168.798 287.619 171.878C283.576 175.846 279.326 179.608 275.097 183.411C272.787 185.477 270.724 187.73 269.403 190.562C269.032 191.368 268.702 192.319 268.702 193.187C268.661 214.351 268.743 235.515 268.64 256.68C268.516 282.122 249.743 304.796 224.822 309.632C220.965 310.355 217.066 310.748 213.146 310.769C202.191 310.913 191.237 310.831 180.283 310.81C153.546 310.81 131.142 292.539 125.902 266.311C125.222 262.674 124.871 258.995 124.892 255.295C124.788 234.668 124.85 214.041 124.83 193.435C124.83 192.794 124.685 192.153 124.417 191.575C122.746 187.689 119.796 184.837 116.722 182.046C112.576 178.285 108.47 174.482 104.406 170.638C99.6613 166.153 95.4322 161.233 92.3377 155.446C88.8719 148.956 85.9219 142.219 85.9219 134.633C85.9219 132.918 86.1075 131.223 86.4789 129.549C87.6341 124.733 91.9045 121.488 96.8763 121.468C109.77 121.468 122.684 121.468 135.578 121.468H136.919L136.96 121.509ZM175.063 144.864H132.896C130.193 144.864 127.862 146.683 127.512 149.349C127.285 150.879 127.305 152.449 127.573 153.979C128.502 158.712 130.565 162.99 133.845 166.504C137.125 170.017 140.715 173.138 144.036 176.549C146.553 179.112 148.162 182.17 148.162 185.953C148.141 209.06 148.141 232.167 148.162 255.274C148.162 256.907 148.245 258.54 148.471 260.152C150.803 276.025 164.088 287.475 180.097 287.475C191.093 287.475 202.088 287.475 213.084 287.475C214.714 287.475 216.344 287.393 217.973 287.186C233.673 285.016 245.37 271.602 245.39 255.729C245.39 251.885 245.349 248.02 245.411 244.175C245.411 243.287 245.163 242.915 244.297 242.646C236.189 240.166 228.433 236.631 221.233 232.146C204.688 221.854 192 208.047 183.79 190.252C179.849 181.716 177.147 172.808 176.198 163.445C175.579 157.306 175.455 151.127 175.084 144.823L175.063 144.864ZM243.761 206.828C243.822 201.041 239.201 196.308 233.446 196.225C227.669 196.163 222.945 200.793 222.863 206.58C222.801 212.367 227.422 217.1 233.177 217.183H233.198C238.954 217.265 243.678 212.656 243.74 206.89V206.828H243.761Z" fill="white"/>
<path d="M179.187 206.724C179.166 212.512 174.463 217.183 168.707 217.162C162.931 217.141 158.269 212.429 158.289 206.642C158.31 200.855 163.013 196.184 168.79 196.204H168.831C174.587 196.204 179.228 200.917 179.208 206.662V206.704L179.187 206.724Z" fill="white"/>
</svg>
